X:1013
T:Polska efter Kolmo-Olle
R:Polska
S:Efter Kolmo-Olle
O:Hög, Hälsingland
Z:Håkan Lidén, 2010-11-17
M:3/4
L:1/8
K:G
GA/c/ BA/G/ F/G/A/B/ | c/B/c/d/ ed/^c/ dd/c/ | de/g/ fe/d/ ^c/d/e/f/ | gd bg bg |
GA/c/ BA/G/ F/G/A/B/ | c/B/c/d/ ed/^c/ dd/c/ | de/g/ fe/d/ ^c/d/e/f/ | gb/a/ g2 g2 :|
|: db ba/g/ f/a/g/f/ | ea ag/f/ e/g/f/e/ | d/^c/d/e/ [=f2A2] [eA]>c | AA/^c/ e/g/e/c/ d>B |
cB/c/ AB/c/ A>c | BA/B/ GA/B/ GA/B/ | c>B AG FE |1 DF/A/ DF/A/ dd :|2 D/c/A/F/ [G4G,4] |]
(:musicend:)
(:music:)
